X:346
T:Litenietis
Z:Jack Campin, http://www.campin.me.uk/
F:Jack Campin's Nine-Note Tunebook
% last edit 05-03-2013
M:2/4
L:1/8
Q:1/4=120
K:D
A|AD DA|AD DA|AG FE|ED DA|AD DA|AD DA|AG FE|EDD||
K:G
d|dc BA|B3  d|dc BA|B3  d|dc BA|B3  d|dc BA|G3 |]

